local/share/icons/dracula-icons-main/scalable/apps/distributor-logo-ubuntu-budgie.svg

<?xml version="1.0" encoding="UTF-8"?>
<svg xmlns="http://www.w3.org/2000/svg" xmlns:xlink="http://www.w3.org/1999/xlink" width="64" height="64" viewBox="0 0 64 64">
<path fill-rule="nonzero" fill="rgb(23.921569%, 25.882353%, 30.588235%)" fill-opacity="1" d="M 8.378906 1.324219 C 10.953125 1.292969 13.34375 2.648438 14.640625 4.871094 C 15.933594 7.09375 15.933594 9.839844 14.640625 12.0625 C 13.34375 14.285156 10.953125 15.640625 8.378906 15.609375 C 4.46875 15.5625 1.324219 12.378906 1.324219 8.464844 C 1.324219 4.554688 4.46875 1.371094 8.378906 1.324219 Z M 8.378906 1.324219 "/>
<path fill-rule="nonzero" fill="rgb(100%, 100%, 100%)" fill-opacity="1" d="M 8.46875 4.234375 C 6.128906 4.234375 4.234375 6.128906 4.234375 8.46875 C 4.234375 10.804688 6.128906 12.699219 8.46875 12.699219 C 10.804688 12.699219 12.699219 10.804688 12.699219 8.46875 C 12.699219 6.128906 10.804688 4.234375 8.46875 4.234375 Z M 9.597656 5.222656 C 9.71875 5.222656 9.816406 5.234375 9.9375 5.253906 C 10.367188 5.324219 10.785156 5.601562 11.046875 6.058594 C 11.40625 6.675781 11.320312 7.460938 10.921875 7.890625 C 10.703125 8.089844 10.660156 8.105469 10.523438 8.195312 C 10.617188 8.050781 10.632812 8.023438 10.65625 7.890625 C 10.648438 7.816406 10.652344 7.785156 10.613281 7.683594 C 10.566406 7.574219 10.480469 7.484375 10.371094 7.425781 C 10.253906 7.375 10.128906 7.347656 10 7.351562 C 9.925781 7.351562 9.878906 7.351562 9.777344 7.363281 C 9.3125 7.492188 8.792969 7.316406 8.550781 6.890625 C 8.257812 6.386719 8.46875 5.714844 8.992188 5.410156 C 9.140625 5.320312 9.300781 5.257812 9.472656 5.234375 C 9.515625 5.226562 9.558594 5.226562 9.597656 5.222656 Z M 6.519531 6.601562 C 6.59375 6.605469 6.667969 6.613281 6.738281 6.632812 C 7.019531 6.71875 7.058594 6.75 7.203125 6.820312 C 7.03125 6.8125 7 6.8125 6.875 6.859375 C 6.8125 6.902344 6.785156 6.914062 6.71875 7 C 6.644531 7.097656 6.609375 7.214844 6.613281 7.335938 C 6.625 7.464844 6.667969 7.585938 6.734375 7.695312 C 6.773438 7.761719 6.792969 7.804688 6.859375 7.882812 C 7.199219 8.222656 7.304688 8.761719 7.0625 9.183594 C 6.769531 9.691406 6.082031 9.839844 5.558594 9.539062 C 5.40625 9.457031 5.273438 9.347656 5.164062 9.214844 C 5.074219 9.089844 5 8.949219 4.949219 8.800781 C 4.792969 8.390625 4.824219 7.894531 5.089844 7.433594 C 5.402344 6.894531 5.992188 6.582031 6.519531 6.601562 Z M 9.789062 9.328125 C 10.375 9.328125 10.847656 9.847656 10.847656 10.453125 C 10.847656 10.628906 10.832031 10.796875 10.765625 10.953125 C 10.691406 11.125 10.613281 11.222656 10.515625 11.347656 C 10.238281 11.6875 9.789062 11.90625 9.261719 11.90625 C 8.546875 11.90625 7.910156 11.441406 7.738281 10.882812 C 7.675781 10.59375 7.683594 10.546875 7.675781 10.386719 C 7.753906 10.539062 7.769531 10.566406 7.871094 10.648438 C 7.9375 10.683594 7.964844 10.699219 8.070312 10.71875 C 8.191406 10.730469 8.3125 10.703125 8.414062 10.636719 C 8.519531 10.5625 8.605469 10.464844 8.664062 10.351562 C 8.703125 10.289062 8.730469 10.25 8.765625 10.152344 C 8.886719 9.6875 9.300781 9.328125 9.789062 9.328125 Z M 9.789062 9.328125 "/>
</svg>

<svg width="64" height="64" version="1.1" viewBox="0 0 16.933 16.933" xmlns="http://www.w3.org/2000/svg">
 <g transform="matrix(1.0385 0 0 1.0385 -.41232 -.32567)" stroke-width=".92729">
  <path d="m8.467 1.588a6.879 6.879 0 1 1 0 13.757 6.879 6.879 0 0 1 0-13.757z" fill="#3d424e"/>
 </g>
 <path d="M8.467 4.233a4.233 4.233 0 0 0-4.234 4.234A4.233 4.233 0 0 0 8.467 12.7 4.233 4.233 0 0 0 12.7 8.467a4.233 4.233 0 0 0-4.233-4.234zm1.132.99c.12-.002.219.012.337.031.432.07.848.347 1.112.805.357.618.273 1.4-.126 1.83-.217.2-.263.215-.397.306.092-.144.108-.172.13-.305-.005-.074-.003-.105-.042-.205a.536.536 0 0 0-.24-.259.866.866 0 0 0-.373-.074c-.075 0-.121-.002-.222.013-.464.128-.984-.05-1.228-.474-.292-.506-.08-1.177.444-1.479a1.25 1.25 0 0 1 .477-.179c.046-.006.088-.008.128-.01zM6.52 6.602c.075.002.148.012.22.029.281.087.317.119.463.19-.17-.007-.203-.008-.329.04-.062.041-.09.055-.156.139a.536.536 0 0 0-.105.337.866.866 0 0 0 .122.36c.038.065.059.106.123.185.343.339.448.878.203 1.301-.292.507-.98.657-1.503.355a1.25 1.25 0 0 1-.393-.324A1.508 1.508 0 0 1 4.95 8.8c-.156-.408-.124-.907.14-1.365.313-.541.903-.853 1.429-.834zm3.27 2.725c.585 0 1.059.52 1.059 1.125 0 .178-.017.346-.084.502-.073.17-.15.268-.25.392-.276.34-.725.561-1.254.561-.713 0-1.35-.464-1.521-1.025-.065-.287-.055-.334-.066-.496.079.152.094.18.198.264.067.034.093.05.199.067a.54.54 0 0 0 .344-.079.863.863 0 0 0 .251-.285c.037-.065.063-.104.1-.199.12-.466.536-.826 1.025-.826z" fill="#fff"/>
</svg>
